X:1
T:Title
%%score { ( 1 3 5 ) | ( 2 4 ) }
L:1/8
M:4/4
K:D
V:1 treble nm="Grand Piano"
V:3 treble 
V:5 treble 
V:2 bass 
V:4 bass 
V:1
 z4 z2[Q:1/4=104] D>E | F2 [DF]2 [FB]2 [DFB]2 | A4 z4 | [A,DF]2 [A,DF]2 [A,=CA]2 [A,CF]2 | %4
[M:3/4] [A,CG]6 |[M:1/4] E3/2 z/ |[M:4/4] [A,CG]2 [A,CA]2 [GB]2 [CGc]2 | d3 B [^FA]2 ^G>F | %8
 E2 [Ec]2 [^DFc]2 [=D^GB]2 |[M:3/4] [CA]6 |[M:1/4] A>A |[M:4/4] [Fd]2 [Fd]2 [Fc]2 [Ec]2 | %12
 [DFB]3 [DF] [EG]2 [EGB]>[EGB] | [^Ge]2 [FGd]2 [EGc]2 [DGB]2 |[M:3/4] z2 G2 F2 |[M:1/4] [CEA]>A | %16
[M:4/4] d2 [DF]2 [DG]2 [DA]2 | [DAc]3 [DGB] [DGB]2 [Ec]>[Ec] | %18
 [DFd]2 [B,DG]2 [A,CF]2[K:bass] [G,CE]2 |[M:3/4] [F,D]6 |[M:1/4][K:treble] F2 |[M:4/4] A4 z4 | %22
 D2 [DB]2 A2 A2 | B2 B>B B2 d2 |[M:3/4] c6 |[M:1/4] B>A |[M:4/4] d2 [A,DF]2 [G,DG]2 [DFA]2 | %27
 [DAc]3 [DGB] [DGB]2 [Ec]>[Ec] | [Dd]2 [B,DG]>[B,DG] [A,CF]2[K:bass] [G,CE]2 |[M:3/4] [F,D]6 |] %30
V:2
 z8 | [D,A,D]2 [A,,A,]2 [D,A,D]2 [A,,A,]2 | [D,A,D]2 [A,,A,]2 [D,F,A,]2 [A,,A,]2 | %3
 D,2 A,,2 ^D,2 A,,2 |[M:3/4] E,2 A,,2 E,2 |[M:1/4] z z/ F/ |[M:4/4] E,2 A,,2 [E,A,C]2 [A,,A,]2 | %7
 [D,A,]2 [D,^G,]2 [D,A,]2 [^D,A,=C]2 | [E,A,C]2 [E,,E,]4 [E,,E,]2 |[M:3/4] z2 E,2 A,2 | %10
[M:1/4] A,>A, |[M:4/4] [D,A,D]2 [D,A,D]2 [F,^A,E]2 [F,A,]2 | [B,,B,]3 [B,,B,] [E,B,]2 [E,B,]2 | %13
 [E,B,E]2 [E,B,]2 [E,,E,]2 [E,,E,]2 |[M:3/4] E,2 B,2 A,2 |[M:1/4] z z/ [CE]/ | %16
[M:4/4] [D,F,D]2 [=C,A,]2 [B,,G,]2 [A,,F,]2 | [G,,G,]3 [G,,G,] [G,,G,]2 [F,^A,]>[F,A,] | %18
 [B,,B,]2 E,2 A,,2 A,,2 |[M:3/4] D,2 A,,2 D,2 |[M:1/4] [D,A,D]2 | %21
[M:4/4] [E,G,C]2 [A,,A,]2 [A,C]2 [A,,G,]2 | [B,,F,]2 [G,,G,]2 [D,F,D]2 [F,A,C]2 | %23
 [G,D]2 [F,A,^D]>[F,A,D] [E,^G,E]2 [G,B,E]2 |[M:3/4] [A,E]6 |[M:1/4] [G,A,C]2 | %26
[M:4/4] [F,A,D]2 =C,2 B,,2 A,,2 | G,,3 G,, G,,2 [F,^A,]>[F,A,] | [B,,B,]2 E,>E, A,,2 A,,2 | %29
[M:3/4] D,6 |] %30
V:3
 x8 | x8 | F2 FF D2 D>E | x8 |[M:3/4] x6 |[M:1/4] [A,C]2 |[M:4/4] x8 | F2 =F2 z4 | x8 |[M:3/4] x6 | %10
[M:1/4] x2 |[M:4/4] x8 | x8 | x8 |[M:3/4] [CA]6 |[M:1/4] x2 |[M:4/4] x8 | x8 | x6[K:bass] x2 | %19
[M:3/4] x6 |[M:1/4][K:treble] x2 |[M:4/4] z2 z G F2 [CE]2 | x8 | x8 |[M:3/4] x6 |[M:1/4] x2 | %26
[M:4/4] x8 | x8 | x6[K:bass] x2 |[M:3/4] x6 |] %30
V:4
 x8 | x8 | x8 | x8 |[M:3/4] x6 |[M:1/4] A,,2 |[M:4/4] x8 | x8 | x8 |[M:3/4] A,,6 |[M:1/4] x2 | %11
[M:4/4] x8 | x8 | x8 |[M:3/4] A,,6 |[M:1/4] [A,,G,]2 |[M:4/4] x8 | x8 | x8 |[M:3/4] x6 | %20
[M:1/4] x2 |[M:4/4] x8 | x8 | x8 |[M:3/4] x6 |[M:1/4] x2 |[M:4/4] x8 | x8 | x8 | %29
[M:3/4] z2 A,,2 D,,2 |] %30
V:5
 x8 | x8 | x8 | x8 |[M:3/4] x6 |[M:1/4] x2 |[M:4/4] x8 | x8 | x8 |[M:3/4] x6 |[M:1/4] x2 | %11
[M:4/4] x8 | x8 | x8 |[M:3/4] x6 |[M:1/4] x2 |[M:4/4] x8 | x8 | x6[K:bass] x2 |[M:3/4] x6 | %20
[M:1/4][K:treble] x2 |[M:4/4] z2 C2 z4 | x8 | x8 |[M:3/4] x6 |[M:1/4] x2 |[M:4/4] x8 | x8 | %28
 x6[K:bass] x2 |[M:3/4] x6 |] %30

